X:83
T:Humors of Multyfarnham, The 
T:The Sports of Multyfarnham   
B:CRE1.043 (Siamsa Mhuilte Farannain)
F:file ID: cre.1/083hu_mult
S:Joseph Walsh
N:This is a close cousin of "Munster Buttermilk".
M:6/8
Q:160
R:jig
K:D
A|d2f edB|AFF FEF|AFF FEF|AFE D2A|
d2f edB|AFF FEF|AFE DEF|E3 D2:|
|:A|A2B d2e|f2f fed|f2f fed|efe edB|
A2B d2e|f2f fed|edB Adf|e3 d2:|

%%%

